src/assets/logo-round.svg

<svg width="171" height="171" viewBox="0 0 171 171" fill="none" xmlns="http://www.w3.org/2000/svg">
	<g clip-path="url(#clip0_42_149)">
		<path d="M85.33 0C132.46 0 170.66 38.2 170.66 85.33C170.66 132.46 132.46 170.66 85.33 170.66C38.2 170.67 0 132.46 0 85.33C0 38.2 38.2 0 85.33 0Z" fill="#FF4040"/>
		<path d="M135.5 99.98C131.33 111.02 123.65 119.56 112.63 124.07V99.98L125.82 88.1L112.63 76.39V59.83C124.65 58.99 133 50.13 133 39.25C133 25.03 119.48 20.01 111.8 20.01C110.13 20.01 108.29 20.01 105.62 20.68V21.35C106.62 21.35 108.12 21.18 108.62 21.18C113.96 21.18 117.97 23.69 117.97 28.54C117.97 32.22 114.96 35.9 109.62 35.9C96.43 35.9 80.9 25.19 64.04 25.19C49.01 25.19 38.66 36.4 38.66 47.78C38.66 59.16 45.17 62.67 52.02 65.18L52.19 64.51C50.02 63.17 48.52 60.83 48.52 57.15C48.52 52.13 53.19 47.95 59.04 47.95C73.23 47.95 96.1 59.83 110.29 59.83H111.63V76.56L98.44 88.1L111.63 99.98V124.41C106.12 126.42 100.44 127.26 94.6 127.26C72.56 127.26 58.54 113.87 58.54 91.62C58.54 86.27 59.21 81.08 60.71 76.06L71.73 71.21V120.4L94.1 110.53V60.17L61.21 74.89C64.55 65.19 71.39 58.16 79.57 54.14L79.4 53.64C57.36 58.49 35.99 75.22 35.99 100.32C35.99 129.27 60.36 149.34 88.75 149.34C118.8 149.34 135.83 129.26 135.99 99.98H135.49H135.5Z" fill="#B42F2F"/>
		<path d="M25.9299 94.06C25.6799 94.49 25.3799 94.86 25.0699 95.17C24.5799 93.69 24.2699 92.1 24.0199 90.56C23.4699 87.67 23.1599 84.72 23.1599 81.77C23.0999 78.94 23.3399 76.05 24.4499 73.47C25.1299 71.99 26.0499 70.64 27.2199 69.53V87.05C27.2199 88.28 27.2199 89.45 27.0399 90.68C26.8599 91.85 26.5499 93.02 25.9299 94.06ZM49.5399 95.48C49.4799 98.06 48.6199 100.71 47.0199 102.74C45.4199 104.83 43.0899 106.31 40.5599 106.86C40.4399 106.86 40.3099 106.92 40.1899 106.92V99.42L49.5299 94.69V95.49L49.5399 95.48ZM40.1999 92.96L48.0699 88.96C48.6799 90.19 49.1199 91.48 49.3599 92.77L40.1999 97.44V92.95V92.96ZM40.1999 90.99V81.89C42.5999 82.81 44.7499 84.35 46.3499 86.32C46.6599 86.69 46.8999 87.06 47.1499 87.43L40.1999 91V90.99ZM38.4199 107.1C36.2699 107.1 34.1199 106.49 32.2099 105.32C29.7499 103.84 27.8399 101.51 26.5499 98.93C26.4299 98.68 26.2399 98.38 26.1199 98.07C26.7299 97.89 27.2899 97.7 27.8999 97.46C29.6199 96.78 31.2199 95.8 32.5099 94.39C33.4899 93.41 34.2299 92.24 34.6599 90.89C35.0899 89.6 35.1499 88.18 35.1499 86.77V85.79L38.4099 82.53V107.13L38.4199 107.1ZM35.1599 66.15C35.2799 66.09 35.4699 66.09 35.5899 66.03H35.7099C37.2499 67.2 38.9099 68.24 40.5699 69.23C42.4099 70.34 44.3199 71.32 46.2899 72.24L35.1599 83.25V66.16V66.15ZM45.6099 75.37L55.8199 65.29L54.5899 64L52.5599 66.03C50.9599 65.48 49.4899 64.8 48.0099 64.06C45.7999 62.89 43.7099 61.54 41.7399 60L35.7099 64.8C29.8699 65.48 24.2099 68.37 20.3399 72.86C16.8999 76.86 14.8699 81.96 14.6799 87.13C14.4999 91.74 15.7899 96.35 18.3099 100.1C20.8899 103.91 24.6999 106.8 29.0699 108.22C32.5099 109.39 36.2599 109.63 39.8299 109.02C43.4599 108.41 46.8999 106.87 49.7899 104.65C52.9899 102.25 55.5099 98.87 56.6799 95.06C57.9699 90.88 57.5399 86.08 55.2699 82.33C53.1799 78.83 49.6099 76.24 45.6199 75.38L45.6099 75.37Z" fill="white"/>
		<path d="M62.74 101.07L71.1 108.08L78.85 101.99C78.91 102.42 78.97 102.79 79.03 103.22C79.28 104.51 79.89 105.8 80.87 106.72C81.61 107.4 82.59 107.83 83.58 107.95L90.96 102.91L89.79 101.37L87.52 103.21C87.03 102.9 86.66 102.41 86.35 101.86C85.92 101 85.86 100.02 85.86 99.03V81.75L88.5 79.72L87.58 78.55L85.43 80.03L81.37 76.46L75.59 81.81L78.79 84.64V100.26L75.84 102.41L72.03 98.72V83.96C72.03 83.16 71.97 82.42 71.78 81.68C71.6 80.88 71.29 80.2 70.86 79.53C70.31 78.73 69.63 78.05 68.83 77.44C68.34 77.07 67.72 76.83 67.17 76.58L59.24 81.68L59.85 82.54C60.28 82.23 60.71 81.93 61.26 81.74C61.44 81.68 61.63 81.62 61.81 81.62C62.24 81.5 62.67 81.56 63.04 81.74C63.47 81.92 63.84 82.17 64.09 82.54C64.34 82.91 64.46 83.34 64.58 83.77C64.64 84.2 64.64 84.63 64.64 85.06V99.45L62.73 101.05L62.74 101.07Z" fill="white"/>
		<path d="M108.58 100.83L105.94 102.55L103.85 100.52V81.9499L99.1799 76.3499L90.9399 81.9499L91.7999 83.1199L94.1399 81.6399L96.2299 84.2799V100.51L92.3599 103.15L93.2799 104.32L95.3099 102.84L101.21 108.13L110.06 101.98L108.58 100.81V100.83ZM94.2499 68.0599L99.4799 74.0199L105.38 68.8499L100.09 62.8899L94.2499 68.0599Z" fill="white"/>
		<path d="M122.38 100.52V60.74H121.21L111.19 67.81V68.67C111.68 68.85 112.11 69.04 112.6 69.28C113.03 69.46 113.4 69.77 113.71 70.14C113.83 70.39 113.96 70.69 114.02 71C114.14 71.31 114.14 71.61 114.14 71.92V99.9L110.02 102.54L110.88 103.77L113.22 102.29L119.74 107.89L127.36 102.54L126.5 101.37L124.72 102.85L122.38 100.51V100.52Z" fill="white"/>
		<path d="M138.97 78.6299L145.49 84.5299V103.04L138.97 98.4899V78.6299ZM138.48 78.1999L131.04 82.8099V101.75L139.89 107.78L153.35 99.8499V82.4499L155.99 80.2999L154.94 78.9499L152.67 80.7899L131.46 62.1599V73.1699L132.69 72.9899L138.47 78.2199L138.48 78.1999Z" fill="white"/>
	</g>
	<defs>
		<clipPath id="clip0_42_149">
			<rect width="170.67" height="170.67" fill="white"/>
		</clipPath>
	</defs>
</svg>

<svg xmlns="http://www.w3.org/2000/svg" width="171" height="171" fill="none"><g clip-path="url(#a)"><path fill="#FF4040" d="M85.33 0c47.13 0 85.33 38.2 85.33 85.33 0 47.13-38.2 85.33-85.33 85.33C38.2 170.67 0 132.46 0 85.33 0 38.2 38.2 0 85.33 0Z"/><path fill="#B42F2F" d="M135.5 99.98c-4.17 11.04-11.85 19.58-22.87 24.09V99.98l13.19-11.88-13.19-11.71V59.83c12.02-.84 20.37-9.7 20.37-20.58 0-14.22-13.52-19.24-21.2-19.24-1.67 0-3.51 0-6.18.67v.67c1 0 2.5-.17 3-.17 5.34 0 9.35 2.51 9.35 7.36 0 3.68-3.01 7.36-8.35 7.36-13.19 0-28.72-10.71-45.58-10.71-15.03 0-25.38 11.21-25.38 22.59 0 11.38 6.51 14.89 13.36 17.4l.17-.67c-2.17-1.34-3.67-3.68-3.67-7.36 0-5.02 4.67-9.2 10.52-9.2 14.19 0 37.06 11.88 51.25 11.88h1.34v16.73L98.44 88.1l13.19 11.88v24.43c-5.51 2.01-11.19 2.85-17.03 2.85-22.04 0-36.06-13.39-36.06-35.64 0-5.35.67-10.54 2.17-15.56l11.02-4.85v49.19l22.37-9.87V60.17L61.21 74.89c3.34-9.7 10.18-16.73 18.36-20.75l-.17-.5c-22.04 4.85-43.41 21.58-43.41 46.68 0 28.95 24.37 49.02 52.76 49.02 30.05 0 47.08-20.08 47.24-49.36h-.5.01Z"/><path fill="#fff" d="M25.93 94.06c-.25.43-.55.8-.86 1.11-.49-1.48-.8-3.07-1.05-4.61-.55-2.89-.86-5.84-.86-8.79-.06-2.83.18-5.72 1.29-8.3.68-1.48 1.6-2.83 2.77-3.94v17.52c0 1.23 0 2.4-.18 3.63-.18 1.17-.49 2.34-1.11 3.38Zm23.61 1.42c-.06 2.58-.92 5.23-2.52 7.26-1.6 2.09-3.93 3.57-6.46 4.12-.12 0-.25.06-.37.06v-7.5l9.34-4.73v.8l.01-.01Zm-9.34-2.52 7.87-4c.61 1.23 1.05 2.52 1.29 3.81l-9.16 4.67v-4.49.01Zm0-1.97v-9.1c2.4.92 4.55 2.46 6.15 4.43.31.37.55.74.8 1.11L40.2 91v-.01Zm-1.78 16.11c-2.15 0-4.3-.61-6.21-1.78-2.46-1.48-4.37-3.81-5.66-6.39-.12-.25-.31-.55-.43-.86.61-.18 1.17-.37 1.78-.61 1.72-.68 3.32-1.66 4.61-3.07.98-.98 1.72-2.15 2.15-3.5.43-1.29.49-2.71.49-4.12v-.98l3.26-3.26v24.6l.01-.03Zm-3.26-40.95c.12-.06.31-.06.43-.12h.12c1.54 1.17 3.2 2.21 4.86 3.2 1.84 1.11 3.75 2.09 5.72 3.01L35.16 83.25v-17.1Zm10.45 9.22 10.21-10.08L54.59 64l-2.03 2.03c-1.6-.55-3.07-1.23-4.55-1.97-2.21-1.17-4.3-2.52-6.27-4.06l-6.03 4.8c-5.84.68-11.5 3.57-15.37 8.06-3.44 4-5.47 9.1-5.66 14.27-.18 4.61 1.11 9.22 3.63 12.97 2.58 3.81 6.39 6.7 10.76 8.12 3.44 1.17 7.19 1.41 10.76.8 3.63-.61 7.07-2.15 9.96-4.37 3.2-2.4 5.72-5.78 6.89-9.59 1.29-4.18.86-8.98-1.41-12.73-2.09-3.5-5.66-6.09-9.65-6.95l-.01-.01ZM62.74 101.07l8.36 7.01 7.75-6.09c.06.43.12.8.18 1.23.25 1.29.86 2.58 1.84 3.5a4.93 4.93 0 0 0 2.71 1.23l7.38-5.04-1.17-1.54-2.27 1.84c-.49-.31-.86-.8-1.17-1.35-.43-.86-.49-1.84-.49-2.83V81.75l2.64-2.03-.92-1.17-2.15 1.48-4.06-3.57-5.78 5.35 3.2 2.83v15.62l-2.95 2.15-3.81-3.69V83.96c0-.8-.06-1.54-.25-2.28a6.54 6.54 0 0 0-.92-2.15c-.55-.8-1.23-1.48-2.03-2.09-.49-.37-1.11-.61-1.66-.86l-7.93 5.1.61.86c.43-.31.86-.61 1.41-.8.18-.06.37-.12.55-.12.43-.12.86-.06 1.23.12.43.18.8.43 1.05.8.25.37.37.8.49 1.23.06.43.06.86.06 1.29v14.39l-1.91 1.6.01.02ZM108.58 100.83l-2.64 1.72-2.09-2.03V81.95l-4.67-5.6-8.24 5.6.86 1.17 2.34-1.48 2.09 2.64v16.23l-3.87 2.64.92 1.17 2.03-1.48 5.9 5.29 8.85-6.15-1.48-1.17v.02ZM94.25 68.06l5.23 5.96 5.9-5.17-5.29-5.96-5.84 5.17Z"/><path fill="#fff" d="M122.38 100.52V60.74h-1.17l-10.02 7.07v.86c.49.18.92.37 1.41.61.43.18.8.49 1.11.86.12.25.25.55.31.86.12.31.12.61.12.92V99.9l-4.12 2.64.86 1.23 2.34-1.48 6.52 5.6 7.62-5.35-.86-1.17-1.78 1.48-2.34-2.34v.01ZM138.97 78.63l6.52 5.9v18.51l-6.52-4.55V78.63Zm-.49-.43-7.44 4.61v18.94l8.85 6.03 13.46-7.93v-17.4l2.64-2.15-1.05-1.35-2.27 1.84-21.21-18.63v11.01l1.23-.18 5.78 5.23.01-.02Z"/></g><defs><clipPath id="a"><path fill="#fff" d="M0 0h170.67v170.67H0z"/></clipPath></defs></svg>
